X:312
T:B312-  Mr. Lane's Maggot
Q:1/4=120
L:1/4
M:C|
K:Dm
a2g2|fg/f/eA|d/e/ (f/g/)eA|)d/e/) f/g/eA|\
ab/a/g(a/g/)|f(g/f/)eA|(d/e/) (f/g/)e^c|d4::\
FAFA|FAFA|AG/A/FA|AG/A/FA|\
F/G/ A/G/ F/G/ A/G/|F/G/ A/G/ F/G/ A/f/|ede^c|d4|\
F/G/AFA|F/G/AFA|AG/A/FA|AG/A/FA|\
F/G/ A/G/ F/G/ A/G/| F/G/ A/G/ F/G/ A/f/|ede^c|d4|]

